icons/social_work.svg

<svg width="48" height="48" viewBox="0 0 48 48" fill="none" xmlns="http://www.w3.org/2000/svg">
<path d="M32.7735 36.0068C33.1615 35.4743 33.5741 35.0562 33.9899 34.6349C34.5373 34.0802 35.0903 33.5198 35.6002 32.6853C35.7282 32.4757 35.8582 32.2743 35.9841 32.0791C36.4394 31.3733 36.8434 30.7471 36.9185 30.1074C37.0145 29.2905 37.0744 24.3909 36.8099 23.6494C36.5455 22.9079 35.0202 22.4924 34.4932 24.152C34.2332 24.971 34.1511 26.0243 34.0766 26.9795C34.0002 27.9602 33.9317 28.8377 33.6872 29.2521C33.2044 30.0703 31.6491 32.1046 31.6491 32.1046L32.9906 29.5582C32.9906 29.5582 33.1952 29.2056 33.0877 28.5365C32.9801 27.8675 32.1708 26.9312 31.7905 27.6748C31.4102 28.4184 30.7456 29.0888 30.7456 29.0888L28.3979 31.9175C28.3979 31.9175 27.6329 32.9098 27.612 33.4543C27.6049 33.6361 27.4911 34.0397 27.3622 34.4967C27.2166 35.0128 27.0519 35.5969 27 36.0068V37H32.7735V36.0068Z" fill="black"/>
<path d="M14.1773 36.0068C13.788 35.4743 13.3741 35.0562 12.9569 34.6349C12.4076 34.0802 11.8528 33.5198 11.3412 32.6853C11.2126 32.4755 11.0821 32.2739 10.9556 32.0784C10.4988 31.3727 10.0938 30.7471 10.0185 30.1074C9.92219 29.2905 10.2209 24.3909 10.4863 23.6494C10.7516 22.9079 12.282 22.4924 12.8107 24.152C13.0716 24.971 13.154 26.0243 13.2287 26.9795C13.3054 27.9602 13.3741 28.8377 13.6194 29.2521C14.1039 30.0703 15.6643 32.1046 15.6643 32.1046L14.3183 29.5582C14.3183 29.5582 14.113 29.2056 14.2209 28.5365C14.3289 27.8675 15.1409 26.9312 15.5224 27.6748C15.904 28.4184 16.5708 29.0888 16.5708 29.0888L18.9264 31.9175C18.9264 31.9175 19.6939 32.9098 19.715 33.4543C19.7299 33.8414 19.9019 35.2339 20 36.0068V37H14.1773V36.0068Z" fill="black"/>
<path d="M19.7812 11C17.018 11 15 13.9864 15 17.2069C15 24.3965 24 29 24 29C24 29 33 24.1 33 17.2069C33 13.9869 30.9823 11 28.2188 11C26.3011 11 24.8782 12.34 24 14.2406C23.1217 12.3399 21.6988 11 19.7812 11Z" fill="black"/>
<path fill-rule="evenodd" clip-rule="evenodd" d="M6 39C6 40.6569 7.34315 42 9 42H39C40.6569 42 42 40.6569 42 39V9C42 7.34315 40.6569 6 39 6H9C7.34315 6 6 7.34315 6 9V39ZM8 9C8 8.44772 8.44771 8 9 8H39C39.5523 8 40 8.44771 40 9V39C40 39.5523 39.5523 40 39 40H33V39C33 38.4477 32.5523 38 32 38H28C27.4477 38 27 38.4477 27 39V40H20V39C20 38.4477 19.5523 38 19 38H15C14.4477 38 14 38.4477 14 39V40H9C8.44772 40 8 39.5523 8 39V9Z" fill="black"/>
</svg>

<svg
  xmlns="http://www.w3.org/2000/svg"
  width="24"
  height="24"
  viewBox="0 0 24 24"
  fill="none"
  stroke="currentColor"
  stroke-width="2"
  stroke-linecap="round"
  stroke-linejoin="round"
>
  <path d="M32.774 36.007c.387-.533.8-.95 1.216-1.372.547-.555 1.1-1.115 1.61-1.95q.194-.314.384-.606c.455-.706.86-1.332.934-1.972.096-.816.156-5.716-.108-6.458-.265-.741-1.79-1.157-2.317.503-.26.819-.342 1.872-.416 2.828-.077.98-.145 1.858-.39 2.272-.483.818-2.038 2.853-2.038 2.853l1.342-2.547s.204-.352.097-1.021c-.108-.67-.917-1.606-1.297-.862-.38.743-1.045 1.414-1.045 1.414l-2.348 2.829s-.765.992-.786 1.536c-.007.182-.12.586-.25 1.043-.145.516-.31 1.1-.362 1.51V37h5.773z" />
  <path d="M14.177 36.007c-.389-.533-.803-.95-1.22-1.372-.55-.555-1.104-1.115-1.616-1.95-.128-.21-.259-.411-.385-.607-.457-.705-.862-1.33-.937-1.97-.097-.817.202-5.717.467-6.459.266-.741 1.796-1.157 2.325.503.26.819.343 1.872.418 2.828.076.98.145 1.858.39 2.272.485.818 2.045 2.853 2.045 2.853l-1.346-2.547s-.205-.352-.097-1.021c.108-.67.92-1.606 1.301-.862.382.743 1.049 1.414 1.049 1.414l2.355 2.829s.768.992.789 1.536c.015.387.187 1.78.285 2.553V37h-5.823z" />
  <path d="M19.781 11C17.018 11 15 13.986 15 17.207 15 24.397 24 29 24 29s9-4.9 9-11.793C33 13.987 30.982 11 28.219 11c-1.918 0-3.34 1.34-4.219 3.24-.878-1.9-2.301-3.24-4.219-3.24" />
  <path
    fill-rule="evenodd"
    d="M6 39a3 3 0 0 0 3 3h30a3 3 0 0 0 3-3V9a3 3 0 0 0-3-3H9a3 3 0 0 0-3 3zM8 9a1 1 0 0 1 1-1h30a1 1 0 0 1 1 1v30a1 1 0 0 1-1 1h-6v-1a1 1 0 0 0-1-1h-4a1 1 0 0 0-1 1v1h-7v-1a1 1 0 0 0-1-1h-4a1 1 0 0 0-1 1v1H9a1 1 0 0 1-1-1z"
    clip-rule="evenodd"
  />
</svg>
